icons/1_Primary/SatoshiTango.svg

<svg width="1024" height="1024" fill="none" xmlns="http://www.w3.org/2000/svg"><g clip-path="url(#a)"><path d="M512 1024c282.77 0 512-229.23 512-512S794.77 0 512 0 0 229.23 0 512s229.23 512 512 512Z" fill="#9ABEFF"/><path d="M587.65 218 336.11 450.77h172.77L587.65 501V218ZM319.32 467.53l134.34 170.68 39.55-170.68H319.32Zm189.85 0L430.71 806l274-213.69-195.54-124.78Z" fill="#fff"/></g><defs><clipPath id="a"><path fill="#fff" d="M0 0h1024v1024H0z"/></clipPath></defs></svg>

<svg width="1024" height="1024" viewBox="0 0 1024 1024" fill="none" xmlns="http://www.w3.org/2000/svg">
<g clip-path="url(#clip0_2_3402)">
<path d="M512 1024C794.77 1024 1024 794.77 1024 512C1024 229.23 794.77 0 512 0C229.23 0 0 229.23 0 512C0 794.77 229.23 1024 512 1024Z" fill="#9ABEFF"/>
<path d="M587.65 218L336.11 450.77H508.88L587.65 501V218ZM319.32 467.53L453.66 638.21L493.21 467.53H319.32ZM509.17 467.53L430.71 806L704.71 592.31L509.17 467.53Z" fill="white"/>
</g>
<defs>
<clipPath id="clip0_2_3402">
<rect width="1024" height="1024" fill="white"/>
</clipPath>
</defs>
</svg>
